packages/ffe-icons/icons/open/300/md/diversity_4.svg

<svg xmlns="http://www.w3.org/2000/svg" height="24" viewBox="0 -960 960 960" width="24"><path d="M160-160V-440v280Zm640 0v-280 280Zm-40-459.999q17 0 28.5-11.5t11.5-28.5q0-17-11.5-28.5t-28.5-11.5q-17 0-28.5 11.5t-11.5 28.5q0 17 11.5 28.5t28.5 11.5ZM759.973-560q-42.511 0-71.241-28.724-28.731-28.723-28.731-71.184 0-41.628 28.724-70.859 28.724-29.23 71.184-29.23 41.629 0 70.859 29.174 29.231 29.174 29.231 70.851 0 42.511-29.175 71.242Q801.65-560 759.973-560ZM480-659.999q25 0 42.5-17t17.5-43q0-25-17.5-42.5t-42.5-17.5q-26 0-43 17.5t-17 42.5q0 26 17 43t43 17Zm.023 59.999q-50.561 0-85.291-34.678-34.731-34.678-34.731-85.196 0-49.662 34.678-84.893 34.678-35.23 85.197-35.23 49.662 0 84.892 35.136 35.231 35.135 35.231 84.839 0 50.561-35.136 85.292Q529.727-600 480.023-600ZM309.23-425q0 33.077 32.769 74.616 32.77 41.538 130.693 130.462l7.308 6.538 8.078-7.692q94-85 128.346-127.473Q650.77-391.022 650.77-425q0-27.504-18.107-46.637Q614.557-490.77 588-490.77q-16.347 0-30.943 7.154t-24.519 19.692L488-410.77h-16.615l-44.923-53.154q-9.923-12.538-24.346-19.692T372-490.77q-27.764 0-45.267 19.133Q309.23-452.504 309.23-425Zm-59.999 0q0-49.154 34.654-87.461 34.654-38.308 88.115-38.308 30.231 0 57.192 14 26.962 14 45.808 37.231l5 5.77 5-6.154q19.231-22.847 45.693-36.847 26.461-14 57.307-14 53.076 0 87.922 38.663 34.847 38.662 34.847 87.106 0 49.923-37.539 100.077-37.538 50.153-149.999 152.999L480-132.309l-42.461-38.461Q322.308-276.154 285.77-325.423q-36.539-49.27-36.539-99.577ZM200-619.999q17 0 28.5-11.5t11.5-28.5q0-17-11.5-28.5t-28.5-11.5q-17 0-28.5 11.5t-11.5 28.5q0 17 11.5 28.5t28.5 11.5Zm283 519.998V-160h317v-267.691q0-5.001-3.654-8.655-3.654-3.654-8.655-3.654H683.539V-499.999h104.152q29.827 0 51.067 21.241 21.241 21.24 21.241 51.067v291.511q0 15.486-10.395 25.832-10.394 10.347-25.759 10.347H483ZM160-160h323v59.999H136.155q-15.365 0-25.759-10.395-10.395-10.394-10.395-25.759v-291.408q0-30.051 20.789-51.243 20.788-21.193 51.519-21.193h104.152V-440H172.309q-5.385 0-8.847 3.654-3.462 3.654-3.462 8.655V-160Zm39.973-400q-42.511 0-71.241-28.724-28.731-28.723-28.731-71.184 0-41.628 28.724-70.859 28.724-29.23 71.185-29.23 41.628 0 70.858 29.174 29.231 29.174 29.231 70.851 0 42.511-29.175 71.242Q241.65-560 199.973-560ZM480-719.999Zm-280 60Zm560 0Z"/></svg>

<svg xmlns="http://www.w3.org/2000/svg" height="24" viewBox="0 -960 960 960" width="24"><path d="M160-160v-280 280Zm640 0v-280 280Zm-40-460q17 0 28.5-11.5T800-660q0-17-11.5-28.5T760-700q-17 0-28.5 11.5T720-660q0 17 11.5 28.5T760-620Zm-.03 60q-42.51 0-71.24-28.72Q660-617.45 660-659.91q0-41.63 28.73-70.86Q717.45-760 759.91-760q41.63 0 70.86 29.18Q860-701.65 860-659.97q0 42.51-29.18 71.24Q801.65-560 759.97-560ZM480-660q25 0 42.5-17t17.5-43q0-25-17.5-42.5T480-780q-26 0-43 17.5T420-720q0 26 17 43t43 17Zm.02 60q-50.56 0-85.29-34.68Q360-669.36 360-719.87q0-49.67 34.68-84.9Q429.36-840 479.88-840q49.66 0 84.89 35.14Q600-769.73 600-720.02q0 50.56-35.14 85.29Q529.73-600 480.02-600ZM309.23-425q0 33.08 32.77 74.62 32.77 41.53 130.69 130.46l7.31 6.54 8.08-7.7q94-85 128.34-127.47 34.35-42.47 34.35-76.45 0-27.5-18.11-46.64-18.1-19.13-44.66-19.13-16.35 0-30.94 7.15-14.6 7.16-24.52 19.7L488-410.77h-16.61l-44.93-53.15q-9.92-12.54-24.34-19.7-14.43-7.15-30.12-7.15-27.76 0-45.27 19.13-17.5 19.14-17.5 46.64Zm-60 0q0-49.15 34.66-87.46 34.65-38.31 88.11-38.31 30.23 0 57.19 14 26.96 14 45.81 37.23l5 5.77 5-6.15q19.23-22.85 45.69-36.85 26.46-14 57.31-14 53.08 0 87.92 38.66 34.85 38.67 34.85 87.11 0 49.92-37.54 100.08-37.54 50.15-150 153L480-132.31l-42.46-38.46Q322.31-276.15 285.77-325.42q-36.54-49.27-36.54-99.58ZM200-620q17 0 28.5-11.5T240-660q0-17-11.5-28.5T200-700q-17 0-28.5 11.5T160-660q0 17 11.5 28.5T200-620Zm283 520v-60h317v-267.69q0-5-3.65-8.66-3.66-3.65-8.66-3.65H683.54v-60h104.15q29.83 0 51.07 21.24Q860-457.52 860-427.69v291.51q0 15.49-10.4 25.83Q839.21-100 823.84-100H483Zm-323-60h323v60H136.16q-15.37 0-25.76-10.4-10.4-10.39-10.4-25.76v-291.4q0-30.05 20.79-51.25Q141.58-500 172.31-500h104.15v60H172.31q-5.39 0-8.85 3.65-3.46 3.66-3.46 8.66V-160Zm39.97-400q-42.51 0-71.24-28.72Q100-617.45 100-659.91q0-41.63 28.73-70.86Q157.45-760 199.91-760q41.63 0 70.86 29.18Q300-701.65 300-659.97q0 42.51-29.18 71.24Q241.65-560 199.97-560ZM480-720Zm-280 60Zm560 0Z"/></svg>
